ui/StatusQ/src/assets/img/icons/address.svg

<svg fill="none" height="24" viewBox="0 0 24 24" width="24" xmlns="http://www.w3.org/2000/svg"><g fill="#000"><path d="m12.9697 21.0303c-.2929-.2929-.2929-.7677 0-1.0606l3.1161-3.1161c.1952-.1953.1952-.5119 0-.7072l-3.1161-3.1161c-.2929-.2929-.2929-.7677 0-1.0606s.7677-.2929 1.0606 0l3.1161 3.1161c.1953.1952.5119.1952.7072 0l3.1161-3.1161c.2929-.2929.7677-.2929 1.0606 0s.2929.7677 0 1.0606l-3.1161 3.1161c-.1952.1953-.1952.5119 0 .7072l3.1161 3.1161c.2929.2929.2929.7677 0 1.0606s-.7677.2929-1.0606 0l-3.1161-3.1161c-.1953-.1952-.5119-.1952-.7072 0l-3.1161 3.1161c-.2929.2929-.7677.2929-1.0606 0z"/><path clip-rule="evenodd" d="m6 3c-2.20914 0-4 1.79086-4 4v10c0 2.2091 1.79086 4 4 4h1c2.20914 0 4-1.7909 4-4v-10c0-2.20914-1.79086-4-4-4zm1 1.5h-1c-1.38071 0-2.5 1.11929-2.5 2.5v6.3358c0 .2227.26929.3343.42678.1768l5.54289-5.54293c.0188-.0188.03033-.0439.03033-.07049v-.89918c0-1.38071-1.11929-2.5-2.5-2.5zm-3.5 11.6008c0-.0266.01153-.0517.03033-.0705l5.54289-5.5429c.15749-.1575.42678-.0459.42678.1768v6.3358c0 1.3807-1.11929 2.5-2.5 2.5h-1c-1.38071 0-2.5-1.1193-2.5-2.5z" fill-rule="evenodd"/></g></svg>

<svg width="24" height="24" viewBox="0 0 24 24" fill="none" xmlns="http://www.w3.org/2000/svg">
<path d="M12.9697 21.0303C12.6768 20.7374 12.6768 20.2626 12.9697 19.9697L16.0858 16.8536C16.281 16.6583 16.281 16.3417 16.0858 16.1464L12.9697 13.0303C12.6768 12.7374 12.6768 12.2626 12.9697 11.9697C13.2626 11.6768 13.7374 11.6768 14.0303 11.9697L17.1464 15.0858C17.3417 15.281 17.6583 15.281 17.8536 15.0858L20.9697 11.9697C21.2626 11.6768 21.7374 11.6768 22.0303 11.9697C22.3232 12.2626 22.3232 12.7374 22.0303 13.0303L18.9142 16.1464C18.719 16.3417 18.719 16.6583 18.9142 16.8536L22.0303 19.9697C22.3232 20.2626 22.3232 20.7374 22.0303 21.0303C21.7374 21.3232 21.2626 21.3232 20.9697 21.0303L17.8536 17.9142C17.6583 17.719 17.3417 17.719 17.1464 17.9142L14.0303 21.0303C13.7374 21.3232 13.2626 21.3232 12.9697 21.0303Z" fill="black"/>
<path fill-rule="evenodd" clip-rule="evenodd" d="M6 3C3.79086 3 2 4.79086 2 7V17C2 19.2091 3.79086 21 6 21H7C9.20914 21 11 19.2091 11 17V7C11 4.79086 9.20914 3 7 3H6ZM7 4.5H6C4.61929 4.5 3.5 5.61929 3.5 7V13.3358C3.5 13.5585 3.76929 13.6701 3.92678 13.5126L9.46967 7.96967C9.48847 7.95087 9.5 7.92577 9.5 7.89918V7C9.5 5.61929 8.38071 4.5 7 4.5ZM3.5 16.1008C3.5 16.0742 3.51153 16.0491 3.53033 16.0303L9.07322 10.4874C9.23071 10.3299 9.5 10.4415 9.5 10.6642V17C9.5 18.3807 8.38071 19.5 7 19.5H6C4.61929 19.5 3.5 18.3807 3.5 17V16.1008Z" fill="black"/>
</svg>
